X: 13532
T: Flowers Of The Forest
R: reel
M: 4/4
K: Amajor
E2 EF (EF) A(B/c/)|(dc) BA FA {F}(EA,)|(3B,CE (E>F) EF A (B/c//d//)|c2 (B>A) A z|
=G2 (G/B/) A/G/ F2 (3EFA|(Ec) BA (FA) (3FEC|=G2 G/B/A/G/ F2 (3EFA|
Ec {c}B>A A2 z|(ce) (e>f) (fe) (dc)|(ec) BA (F>A) (3FEC|(ce) (e>f) (fe) (dc)|
(Bc)dc {c}B>A (A>B)|(ce) (e>f) (fe) (dc)|ec {c}BA (FA) (3FEC|
(3B,CE (E>F) EF A (B/c//d//)|c2 (B>A) A2 z||

